static char *east_xpm[] = {
"64 64 4 1",
". c #555555",
"# c #777777",
"+ c #999999",
"@ c #444444",
"@@@@@@@@@@@@@@@@@@@@@@@@@@@@@@@@@@@@@@@@@@@@@@@@@@@@@@@@@@@@@@@@",
"@...............@...............@...............@...............",
"@...............@...............@...............@...............",
"@...............@...............@...............@...............",
"@...............@...............@...............@...............",
"@...............@...............@...............@...............",
"@...............@...............@...............@...............",
"@...............@...............@...............@...............",
"@@@@@@@@@@@@@@@@@@@@@@@@@@@@@@@@@@@@@@@@@@@@@@@@@@@@@@@@@@@@@@@@",
"########@###############@###############@###############@#######",
"########@###############@###############@###############@#######",
"########@###############@###############@###############@#######",
"########@###############@###############@###############@#######",
"########@###############@###############@###############@#######",
"########@###############@###############@###############@#######",
"########@###############@###############@###############@#######",
"@@@@@@@@@@@@@@@@@@@@@@@@@@@@@@@@@@@@@@@@@@@@@@@@@@@@@@@@@@@@@@@@",
"@+++++++++++++++@+++++++++++++++@+++++++++++++++@+++++++++++++++",
"@+++++++++++++++@+++++++++++++++@+++++++++++++++@+++++++++++++++",
"@+++++++++++++++@+++++++++++++++@+++++++++++++++@+++++++++++++++",
"@+++++++++++++++@+++++++++++++++@+++++++++++++++@+++++++++++++++",
"@+++++++++++++++@+++++++++++++++@+++++++++++++++@+++++++++++++++",
"@+++++++++++++++@+++++++++++++++@+++++++++++++++@+++++++++++++++",
"@+++++++++++++++@+++++++++++++++@+++++++++++++++@+++++++++++++++",
"@@@@@@@@@@@@@@@@@@@@@@@@@@@@@@@@@@@@@@@@@@@@@@@@@@@@@@@@@@@@@@@@",
"........@...............@...............@...............@.......",
"........@...............@...............@...............@.......",
"........@...............@...............@...............@.......",
"........@...............@...............@...............@.......",
"........@...............@...............@...............@.......",
"........@...............@...............@...............@.......",
"........@...............@...............@...............@.......",
"@@@@@@@@@@@@@@@@@@@@@@@@@@@@@@@@@@@@@@@@@@@@@@@@@@@@@@@@@@@@@@@@",
"@###############@###############@###############@###############",
"@###############@###############@###############@###############",
"@###############@###############@###############@###############",
"@###############@###############@###############@###############",
"@###############@###############@###############@###############",
"@###############@###############@###############@###############",
"@###############@###############@###############@###############",
"@@@@@@@@@@@@@@@@@@@@@@@@@@@@@@@@@@@@@@@@@@@@@@@@@@@@@@@@@@@@@@@@",
"++++++++@+++++++++++++++@+++++++++++++++@+++++++++++++++@+++++++",
"++++++++@+++++++++++++++@+++++++++++++++@+++++++++++++++@+++++++",
"++++++++@+++++++++++++++@+++++++++++++++@+++++++++++++++@+++++++",
"++++++++@+++++++++++++++@+++++++++++++++@+++++++++++++++@+++++++",
"++++++++@+++++++++++++++@+++++++++++++++@+++++++++++++++@+++++++",
"++++++++@+++++++++++++++@+++++++++++++++@+++++++++++++++@+++++++",
"++++++++@+++++++++++++++@+++++++++++++++@+++++++++++++++@+++++++",
"@@@@@@@@@@@@@@@@@@@@@@@@@@@@@@@@@@@@@@@@@@@@@@@@@@@@@@@@@@@@@@@@",
"@...............@...............@...............@...............",
"@...............@...............@...............@...............",
"@...............@...............@...............@...............",
"@...............@...............@...............@...............",
"@...............@...............@...............@...............",
"@...............@...............@...............@...............",
"@...............@...............@...............@...............",
"@@@@@@@@@@@@@@@@@@@@@@@@@@@@@@@@@@@@@@@@@@@@@@@@@@@@@@@@@@@@@@@@",
"########@###############@###############@###############@#######",
"########@###############@###############@###############@#######",
"########@###############@###############@###############@#######",
"########@###############@###############@###############@#######",
"########@###############@###############@###############@#######",
"########@###############@###############@###############@#######",
"########@###############@###############@###############@#######"
};
