static char *north_xpm[] = {
"64 64 4 1",
". c #8B0000",
"# c #A52A2A",
"+ c #B22222",
"@ c #696969",
"@@@@@@@@@@@@@@@@@@@@@@@@@@@@@@@@@@@@@@@@@@@@@@@@@@@@@@@@@@@@@@@@",
"@...............@...............@...............@...............",
"@...............@...............@...............@...............",
"@...............@...............@...............@...............",
"@...............@...............@...............@...............",
"@...............@...............@...............@...............",
"@...............@...............@...............@...............",
"@...............@...............@...............@...............",
"@@@@@@@@@@@@@@@@@@@@@@@@@@@@@@@@@@@@@@@@@@@@@@@@@@@@@@@@@@@@@@@@",
"########@###############@###############@###############@#######",
"########@###############@###############@###############@#######",
"########@###############@###############@###############@#######",
"########@###############@###############@###############@#######",
"########@###############@###############@###############@#######",
"########@###############@###############@###############@#######",
"########@###############@###############@###############@#######",
"@@@@@@@@@@@@@@@@@@@@@@@@@@@@@@@@@@@@@@@@@@@@@@@@@@@@@@@@@@@@@@@@",
"@+++++++++++++++@+++++++++++++++@+++++++++++++++@+++++++++++++++",
"@+++++++++++++++@+++++++++++++++@+++++++++++++++@+++++++++++++++",
"@+++++++++++++++@+++++++++++++++@+++++++++++++++@+++++++++++++++",
"@+++++++++++++++@+++++++++++++++@+++++++++++++++@+++++++++++++++",
"@+++++++++++++++@+++++++++++++++@+++++++++++++++@+++++++++++++++",
"@+++++++++++++++@+++++++++++++++@+++++++++++++++@+++++++++++++++",
"@+++++++++++++++@+++++++++++++++@+++++++++++++++@+++++++++++++++",
"@@@@@@@@@@@@@@@@@@@@@@@@@@@@@@@@@@@@@@@@@@@@@@@@@@@@@@@@@@@@@@@@",
"........@...............@...............@...............@.......",
"........@...............@...............@...............@.......",
"........@...............@...............@...............@.......",
"........@...............@...............@...............@.......",
"........@...............@...............@...............@.......",
"........@...............@...............@...............@.......",
"........@...............@...............@...............@.......",
"@@@@@@@@@@@@@@@@@@@@@@@@@@@@@@@@@@@@@@@@@@@@@@@@@@@@@@@@@@@@@@@@",
"@###############@###############@###############@###############",
"@###############@###############@###############@###############",
"@###############@###############@###############@###############",
"@###############@###############@###############@###############",
"@###############@###############@###############@###############",
"@###############@###############@###############@###############",
"@###############@###############@###############@###############",
"@@@@@@@@@@@@@@@@@@@@@@@@@@@@@@@@@@@@@@@@@@@@@@@@@@@@@@@@@@@@@@@@",
"++++++++@+++++++++++++++@+++++++++++++++@+++++++++++++++@+++++++",
"++++++++@+++++++++++++++@+++++++++++++++@+++++++++++++++@+++++++",
"++++++++@+++++++++++++++@+++++++++++++++@+++++++++++++++@+++++++",
"++++++++@+++++++++++++++@+++++++++++++++@+++++++++++++++@+++++++",
"++++++++@+++++++++++++++@+++++++++++++++@+++++++++++++++@+++++++",
"++++++++@+++++++++++++++@+++++++++++++++@+++++++++++++++@+++++++",
"++++++++@+++++++++++++++@+++++++++++++++@+++++++++++++++@+++++++",
"@@@@@@@@@@@@@@@@@@@@@@@@@@@@@@@@@@@@@@@@@@@@@@@@@@@@@@@@@@@@@@@@",
"@...............@...............@...............@...............",
"@...............@...............@...............@...............",
"@...............@...............@...............@...............",
"@...............@...............@...............@...............",
"@...............@...............@...............@...............",
"@...............@...............@...............@...............",
"@...............@...............@...............@...............",
"@@@@@@@@@@@@@@@@@@@@@@@@@@@@@@@@@@@@@@@@@@@@@@@@@@@@@@@@@@@@@@@@",
"########@###############@###############@###############@#######",
"########@###############@###############@###############@#######",
"########@###############@###############@###############@#######",
"########@###############@###############@###############@#######",
"########@###############@###############@###############@#######",
"########@###############@###############@###############@#######",
"########@###############@###############@###############@#######"
};
