static char *south_xpm[] = {
"64 64 4 1",
". c #191970",
"# c #00008B",
"+ c #0000CD",
"@ c #696969",
"@@@@@@@@@@@@@@@@@@@@@@@@@@@@@@@@@@@@@@@@@@@@@@@@@@@@@@@@@@@@@@@@",
"@...............@...............@...............@...............",
"@...............@...............@...............@...............",
"@...............@...............@...............@...............",
"@...............@...............@...............@...............",
"@...............@...............@...............@...............",
"@...............@...............@...............@...............",
"@...............@...............@...............@...............",
"@@@@@@@@@@@@@@@@@@@@@@@@@@@@@@@@@@@@@@@@@@@@@@@@@@@@@@@@@@@@@@@@",
"########@###############@###############@###############@#######",
"########@###############@###############@###############@#######",
"########@###############@###############@###############@#######",
"########@###############@###############@###############@#######",
"########@###############@###############@###############@#######",
"########@###############@###############@###############@#######",
"########@###############@###############@###############@#######",
"@@@@@@@@@@@@@@@@@@@@@@@@@@@@@@@@@@@@@@@@@@@@@@@@@@@@@@@@@@@@@@@@",
"@+++++++++++++++@+++++++++++++++@+++++++++++++++@+++++++++++++++",
"@+++++++++++++++@+++++++++++++++@+++++++++++++++@+++++++++++++++",
"@+++++++++++++++@+++++++++++++++@+++++++++++++++@+++++++++++++++",
"@+++++++++++++++@+++++++++++++++@+++++++++++++++@+++++++++++++++",
"@+++++++++++++++@+++++++++++++++@+++++++++++++++@+++++++++++++++",
"@+++++++++++++++@+++++++++++++++@+++++++++++++++@+++++++++++++++",
"@+++++++++++++++@+++++++++++++++@+++++++++++++++@+++++++++++++++",
"@@@@@@@@@@@@@@@@@@@@@@@@@@@@@@@@@@@@@@@@@@@@@@@@@@@@@@@@@@@@@@@@",
"........@...............@...............@...............@.......",
"........@...............@...............@...............@.......",
"........@...............@...............@...............@.......",
"........@...............@...............@...............@.......",
"........@...............@...............@...............@.......",
"........@...............@...............@...............@.......",
"........@...............@...............@...............@.......",
"@@@@@@@@@@@@@@@@@@@@@@@@@@@@@@@@@@@@@@@@@@@@@@@@@@@@@@@@@@@@@@@@",
"@###############@###############@###############@###############",
"@###############@###############@###############@###############",
"@###############@###############@###############@###############",
"@###############@###############@###############@###############",
"@###############@###############@###############@###############",
"@###############@###############@###############@###############",
"@###############@###############@###############@###############",
"@@@@@@@@@@@@@@@@@@@@@@@@@@@@@@@@@@@@@@@@@@@@@@@@@@@@@@@@@@@@@@@@",
"++++++++@+++++++++++++++@+++++++++++++++@+++++++++++++++@+++++++",
"++++++++@+++++++++++++++@+++++++++++++++@+++++++++++++++@+++++++",
"++++++++@+++++++++++++++@+++++++++++++++@+++++++++++++++@+++++++",
"++++++++@+++++++++++++++@+++++++++++++++@+++++++++++++++@+++++++",
"++++++++@+++++++++++++++@+++++++++++++++@+++++++++++++++@+++++++",
"++++++++@+++++++++++++++@+++++++++++++++@+++++++++++++++@+++++++",
"++++++++@+++++++++++++++@+++++++++++++++@+++++++++++++++@+++++++",
"@@@@@@@@@@@@@@@@@@@@@@@@@@@@@@@@@@@@@@@@@@@@@@@@@@@@@@@@@@@@@@@@",
"@...............@...............@...............@...............",
"@...............@...............@...............@...............",
"@...............@...............@...............@...............",
"@...............@...............@...............@...............",
"@...............@...............@...............@...............",
"@...............@...............@...............@...............",
"@...............@...............@...............@...............",
"@@@@@@@@@@@@@@@@@@@@@@@@@@@@@@@@@@@@@@@@@@@@@@@@@@@@@@@@@@@@@@@@",
"########@###############@###############@###############@#######",
"########@###############@###############@###############@#######",
"########@###############@###############@###############@#######",
"########@###############@###############@###############@#######",
"########@###############@###############@###############@#######",
"########@###############@###############@###############@#######",
"########@###############@###############@###############@#######"
};
