static char *west_xpm[] = {
"64 64 4 1",
". c #006400",
"# c #228B22",
"+ c #2E8B57",
"@ c #696969",
"@@@@@@@@@@@@@@@@@@@@@@@@@@@@@@@@@@@@@@@@@@@@@@@@@@@@@@@@@@@@@@@@",
"@...............@...............@...............@...............",
"@...............@...............@...............@...............",
"@...............@...............@...............@...............",
"@...............@...............@...............@...............",
"@...............@...............@...............@...............",
"@...............@...............@...............@...............",
"@...............@...............@...............@...............",
"@@@@@@@@@@@@@@@@@@@@@@@@@@@@@@@@@@@@@@@@@@@@@@@@@@@@@@@@@@@@@@@@",
"########@###############@###############@###############@#######",
"########@###############@###############@###############@#######",
"########@###############@###############@###############@#######",
"########@###############@###############@###############@#######",
"########@###############@###############@###############@#######",
"########@###############@###############@###############@#######",
"########@###############@###############@###############@#######",
"@@@@@@@@@@@@@@@@@@@@@@@@@@@@@@@@@@@@@@@@@@@@@@@@@@@@@@@@@@@@@@@@",
"@+++++++++++++++@+++++++++++++++@+++++++++++++++@+++++++++++++++",
"@+++++++++++++++@+++++++++++++++@+++++++++++++++@+++++++++++++++",
"@+++++++++++++++@+++++++++++++++@+++++++++++++++@+++++++++++++++",
"@+++++++++++++++@+++++++++++++++@+++++++++++++++@+++++++++++++++",
"@+++++++++++++++@+++++++++++++++@+++++++++++++++@+++++++++++++++",
"@+++++++++++++++@+++++++++++++++@+++++++++++++++@+++++++++++++++",
"@+++++++++++++++@+++++++++++++++@+++++++++++++++@+++++++++++++++",
"@@@@@@@@@@@@@@@@@@@@@@@@@@@@@@@@@@@@@@@@@@@@@@@@@@@@@@@@@@@@@@@@",
"........@...............@...............@...............@.......",
"........@...............@...............@...............@.......",
"........@...............@...............@...............@.......",
"........@...............@...............@...............@.......",
"........@...............@...............@...............@.......",
"........@...............@...............@...............@.......",
"........@...............@...............@...............@.......",
"@@@@@@@@@@@@@@@@@@@@@@@@@@@@@@@@@@@@@@@@@@@@@@@@@@@@@@@@@@@@@@@@",
"@###############@###############@###############@###############",
"@###############@###############@###############@###############",
"@###############@###############@###############@###############",
"@###############@###############@###############@###############",
"@###############@###############@###############@###############",
"@###############@###############@###############@###############",
"@###############@###############@###############@###############",
"@@@@@@@@@@@@@@@@@@@@@@@@@@@@@@@@@@@@@@@@@@@@@@@@@@@@@@@@@@@@@@@@",
"++++++++@+++++++++++++++@+++++++++++++++@+++++++++++++++@+++++++",
"++++++++@+++++++++++++++@+++++++++++++++@+++++++++++++++@+++++++",
"++++++++@+++++++++++++++@+++++++++++++++@+++++++++++++++@+++++++",
"++++++++@+++++++++++++++@+++++++++++++++@+++++++++++++++@+++++++",
"++++++++@+++++++++++++++@+++++++++++++++@+++++++++++++++@+++++++",
"++++++++@+++++++++++++++@+++++++++++++++@+++++++++++++++@+++++++",
"++++++++@+++++++++++++++@+++++++++++++++@+++++++++++++++@+++++++",
"@@@@@@@@@@@@@@@@@@@@@@@@@@@@@@@@@@@@@@@@@@@@@@@@@@@@@@@@@@@@@@@@",
"@...............@...............@...............@...............",
"@...............@...............@...............@...............",
"@...............@...............@...............@...............",
"@...............@...............@...............@...............",
"@...............@...............@...............@...............",
"@...............@...............@...............@...............",
"@...............@...............@...............@...............",
"@@@@@@@@@@@@@@@@@@@@@@@@@@@@@@@@@@@@@@@@@@@@@@@@@@@@@@@@@@@@@@@@",
"########@###############@###############@###############@#######",
"########@###############@###############@###############@#######",
"########@###############@###############@###############@#######",
"########@###############@###############@###############@#######",
"########@###############@###############@###############@#######",
"########@###############@###############@###############@#######",
"########@###############@###############@###############@#######"
};
